X: 26
T:Reel B&amp;eacute;atrice
M:2/4
L:1/16
Q:100
C:Trad.
S:Arr. Chris Ricker
R:Reel
K:Am
A,3B,|:C2A,C EA,CE|AEEC E2AB|ccAc eAce|ae (3eee aeab|!
c'bag fedc|Bdd^c d4|\^edef e=dcB|1A3 A, A,3 B,:|2A3 A, A,2 z2||!
|:a2 fa bf (3fff|f\^ede ae (3eee|\^edef e=ddB|cdcB A2 a2|!
aafa bf (3fff|f\^ede ae (3eee|\^edef e=dcB|1A2 z A, A,3 z:|2A2 z4 G&amp;gt;B||!
|:cG (3GGG EGce|cG (3GGG EGce|dB (3BBB GBdB|cc'ba gfed|!
cG (3GGG EGce|cG (3GGG EGce|dB (3BBB GBdB|1cBcd c2 GB:|2cBcd c2 z2||!
